remix/Logos/qq-fill.svg

<svg viewBox="0 0 24 24" fill="currentColor" xmlns="http://www.w3.org/2000/svg"><path d="M19.9139 14.529C19.7336 13.955 19.4877 13.2856 19.2385 12.643L18.3288 10.3969C18.3295 10.371 18.3408 9.92858 18.3408 9.70053C18.3408 5.8599 16.5082 2.00037 12.0009 2C7.49403 2.00037 5.66113 5.8599 5.66113 9.70053C5.66113 9.92858 5.67237 10.371 5.67312 10.3969L4.76379 12.643C4.51453 13.2856 4.26827 13.955 4.08798 14.529C3.2285 17.2657 3.507 18.3982 3.71915 18.4238C4.17419 18.4779 5.49021 16.3635 5.49021 16.3635C5.49021 17.5879 6.12741 19.1858 7.5064 20.3398C6.99064 20.4971 6.35868 20.7388 5.95237 21.0355C5.58729 21.3025 5.63302 21.5743 5.69861 21.6841C5.9876 22.1661 10.6542 21.9918 12.0017 21.8417C13.3488 21.9918 18.0158 22.1661 18.3044 21.6841C18.3704 21.5743 18.4157 21.3025 18.0507 21.0355C17.6443 20.7388 17.012 20.4971 16.4959 20.3395C17.8745 19.1858 18.5117 17.5879 18.5117 16.3635C18.5117 16.3635 19.8281 18.4779 20.2831 18.4238C20.4949 18.3982 20.7734 17.2657 19.9139 14.529Z"/></svg>

<svg viewBox="0 0 24 24" xmlns="http://www.w3.org/2000/svg"><path fill="none" d="M0 0h24v24H0Z"/><path d="M19.913 14.529h-.001c-.21-.64-.44-1.27-.68-1.89l-.91-2.25c0-.03.01-.47.01-.7 0-3.85-1.84-7.71-6.34-7.71 -4.507 0-6.34 3.86-6.34 7.7 0 .22.01.67.01.69l-.91 2.24c-.25.64-.5 1.31-.68 1.88 -.86 2.73-.581 3.87-.37 3.89 .45.05 1.771-2.06 1.771-2.06 0 1.22.63 2.82 2.016 3.97 -.52.15-1.15.39-1.56.69 -.37.26-.32.54-.26.65 .28.48 4.955.3 6.3.15 1.34.15 6.01.32 6.302-.16 .06-.11.11-.39-.26-.65 -.41-.3-1.04-.54-1.56-.7 1.37-1.16 2.01-2.76 2.01-3.98 0 0 1.31 2.11 1.77 2.06 .21-.03.49-1.157-.37-3.894"/></svg>
